X:1
T:The Lord my shepherd is
T:The Lord my shepherd is - Button’s (Thomas Purday)
C:Thomas Purday
Z:p49, Harmonia Sacra
Z:Londinensis,
Z:London: [c1807]
%%score [ 1 2 3 4 ]
L:1/8
M:2/2
K:D
V:1 treble nm="Soprano" snm="S."
V:2 treble nm="Alto" snm="A."
V:3 treble-8 transpose=-12 nm="Tenor" snm="T."
V:4 bass nm="Bass" snm="B."
V:1
 d4 | f4 e4 | d6 c2 | d6 F2 | G2 A2 B2 c2 | d6 e2 | A2 B2 c2 d2 | c8 | e4 e2 d2 | (c2 e2 g2) f2 | %10
w: If|e’er I|go a-|stray, He|doth my soul re-|claim, he|doth my soul re-|claim,|And guides me|in _ _ his|
w: The|Lord my|shep- herd|is, I|shall be well sup-|plied, I|shall be well sup-|plied:|Since he is|mine _ _ and|
w: He|leads me|to the|place Where|heav’n- ly pas- ture|grows, where|heav’n- ly pas- ture|grows,|Where liv- ing|wa- * * ters|
 (g2 e2 c2) A2 | d6 f2 | (gf)(ed) (cB) A2 | e6 g2 | (fe)(dc) B2 A2 | d4 c4 | d4 d4 | d4 c4 | d8 |] %19
w: own _ _ right|way, For|his _ most _ ho- * ly|name, for|his _ most _ ho- ly|name, for|his most|ho- ly|name.|
w: I _ _ am|his, What|can _ I _ want _ be-|side, what|can _ I _ want be-|side, what|can I|want be-|side?|
w: gent- * * ly|pass, And|full _ sal- * va- * tion|flows, and|full _ sal- * va- tion|flows, and|full sal-|va- tion|flows.|
V:2
 F4 | D4 C4 | (D2 G2) (F2 E2) | D4 F4 | E2 E2 D2 A2 | A4 A4 | A2 D2 A2 ^G2 | A8 | A4 A2 ^G2 | %9
w: If|e’er I|go _ a- *|stray, He|doth my soul re-|claim, he|doth my soul re-|claim,|And guides me|
w: The|Lord my|shep- * herd _|is, I|shall be well sup-|plied, I|shall be well sup-|plied:|Since he is|
w: He|leads me|to _ the _|place Where|heav’n- ly pas- ture|grows, where|heav’n- ly pas- ture|grows,|Where liv- ing|
 (A2 C4) A,2 | (C2 E4) G2 | F6 z2 | z4 z2 E2 | E2 E2 E2 C2 | A4 (^G2 A2) | A2 G2 F2 E2 | %16
w: in _ his|own _ right|way,|For|his most ho- ly|name, for _|his most ho- ly|
w: mine _ and|I _ am|his,|What|can I want be-|side, what _|can I want be-|
w: wa- * ters|gent- * ly|pass,|And|full sal- va- tion|flows, and _|full sal- va- tion|
 F2 D2 D2 G2 | E6 E2 | D8 |] %19
w: name, for his most|ho- ly|name.|
w: side, what can I|want be-|side?|
w: flows, and full sal-|va- tion|flows.|
V:3
 A4 | A4 A4 | B4 (A2 G2) | F6 d2 | B2 c2 d2 e2 | d6 c2 | d2 d2 (Ae) e2 | e8 | c4 c2 B2 | %9
w: If|e’er I|go a- *|stray, He|doth my soul re-|claim, he|doth my soul _ re-|claim,|And guides me|
w: The|Lord my|shep- herd _|is, I|shall be well sup-|plied, I|shall be well _ sup-|plied:|Since he is|
w: He|leads me|to the _|place Where|heav’n- ly pas- ture|grows, where|heav’n- ly pas- * ture|grows,|Where liv- ing|
 (A2 c2 e2) d2 | (c4 A2) A2 | A6 d2 | (ed)(cB) (AB)(cd) | c6 e2 | (dc)(BA) d2 c2 | d4 A4 | %16
w: in _ _ his|own _ right|way, For|his _ most _ ho- * ly _|name, for|his _ most _ ho- ly|name, for|
w: mine _ _ and|I _ am|his, What|can _ I _ want _ be- *|side, what|can _ I _ want be-|side, what|
w: wa- * * ters|gent- * ly|pass, And|full _ sal- * va- * tion _|flows, and|full _ sal- * va- tion|flows, and|
 (A2 B2) (F2 G2) | A6 G2 | F8 |] %19
w: his _ most _|ho- ly|name.|
w: can _ I _|want be-|side?|
w: full _ sal- *|va- tion|flows.|
V:4
 D,4 | D,4 G,4 | G,4 A,4 | D,4 A,4 | G,2 G,2 G,2 G,2 | F,4 G,4 | F,2 G,2 A,2 B,2 | A,8 | %8
w: If|e’er I|go a-|stray, He|doth my soul re-|claim, he|doth my soul re-|claim,|
w: The|Lord my|shep- herd|is, I|shall be well sup-|plied, I|shall be well sup-|plied:|
w: He|leads me|to the|place Where|heav’n- ly pas- ture|grows, where|heav’n- ly pas- ture|grows,|
 A,4 E,2 E,2 | A,6 D,2 | E,4 A,4 | D,6 z2 | z4 z2 A,2 | A,2 A,2 A,2 A,2 | %14
w: And guides me|in his|own right|way,|For|his most ho- ly|
w: Since he is|mine and|I am|his,|What|can I want be-|
w: Where liv- ing|wa- ters|gent- ly|pass,|And|full sal- va- tion|
"^Notes:The allocation of parts is not specified in the score in the source, but the preface to the work indicates that ‘The air,or leading melody throughout the whole is placed next the bass for the accomodation of performers on thepiano-forte or organ’. This air has been treated here as the soprano part, i.e. the original order of parts is treated asAlto - Tenor - Soprano (Air) - Bass. The alto and tenor parts are given in the source in the treble clef an octaveabove sounding pitch. The text is not given in the source: the only indication is ‘Ps: 23’ in the heading. The versionis not specified, but of the commonly used versions (Old Version, New Version and Isaac Watts’ paraphrases), thisis the only one in Short Metre. Repeated lines of text are indicated with ://: markings in the source.This tune is attributed ‘T. Purday’ in the source: the tune name ‘Button’s’ may be a reference to S. J. Button, Purday’spartner in the firm ‘Purday & Button, No. 75, St. Paul’s Church Yard’, who published Harmonia Sacra Londinensis." D,4 E,4 | %15
w: name, for|
w: side, what|
w: flows, and|
"^In spite of all my foesThou dost my table spread;My cup with blessings overflows,And joy exalts my head.The bounties of thy loveShall crown my following days;Nor from thy house will I removeNor cease to speak thy praise." F,2 B,2 A,2 G,2 | %16
w: his most ho- ly|
w: can I want be-|
w: full sal- va- tion|
 F,2 G,2 A,2 B,2 | A,4 A,,4 | D,8 |] %19
w: name, for his most|ho- ly|name.|
w: side, what can I|want be-|side?|
w: flows, and full sal-|va- tion|flows.|

